src/assets/icons/lock.svg

<?xml version="1.0" encoding="utf-8"?><!-- Uploaded to: SVG Repo, www.svgrepo.com, Generator: SVG Repo Mixer Tools -->
<svg width="64px" height="64px" viewBox="0 0 24 24" fill="none" xmlns="http://www.w3.org/2000/svg">
    <path d="M12 14.5V16.5M7 10.0288C7.47142 10 8.05259 10 8.8 10H15.2C15.9474 10 16.5286 10 17 10.0288M7 10.0288C6.41168 10.0647 5.99429 10.1455 5.63803 10.327C5.07354 10.6146 4.6146 11.0735 4.32698 11.638C4 12.2798 4 13.1198 4 14.8V16.2C4 17.8802 4 18.7202 4.32698 19.362C4.6146 19.9265 5.07354 20.3854 5.63803 20.673C6.27976 21 7.11984 21 8.8 21H15.2C16.8802 21 17.7202 21 18.362 20.673C18.9265 20.3854 19.3854 19.9265 19.673 19.362C20 18.7202 20 17.8802 20 16.2V14.8C20 13.1198 20 12.2798 19.673 11.638C19.3854 11.0735 18.9265 10.6146 18.362 10.327C18.0057 10.1455 17.5883 10.0647 17 10.0288M7 10.0288V8C7 5.23858 9.23858 3 12 3C14.7614 3 17 5.23858 17 8V10.0288"
          stroke="#004FE1" stroke-width="2" stroke-linecap="round" stroke-linejoin="round"/>
</svg>

<svg xmlns="http://www.w3.org/2000/svg" width="64" height="64" fill="none" viewBox="0 0 24 24"><path stroke="#004FE1" stroke-linecap="round" stroke-linejoin="round" stroke-width="2" d="M12 14.5v2m-5-6.471C7.471 10 8.053 10 8.8 10h6.4c.747 0 1.329 0 1.8.029m-10 0c-.588.036-1.006.117-1.362.298a3 3 0 0 0-1.311 1.311C4 12.28 4 13.12 4 14.8v1.4c0 1.68 0 2.52.327 3.162a3 3 0 0 0 1.311 1.311C6.28 21 7.12 21 8.8 21h6.4c1.68 0 2.52 0 3.162-.327a3 3 0 0 0 1.311-1.311C20 18.72 20 17.88 20 16.2v-1.4c0-1.68 0-2.52-.327-3.162a3 3 0 0 0-1.311-1.311c-.356-.181-.774-.262-1.362-.298m-10 0V8a5 5 0 0 1 10 0v2.029"/></svg>
